X:565
T: Der wunderliche Kittel (263), S. 561f
N: T0453
O: Luxemburg
S: Singendes Volk, Esch-Alzette, 1937 posth.]
N: Heffingen, ? P. Wagener, 2.6.1935, Bruchstck
R: Scherz-, Spiel-, Spottlied]
M: 2/4
L: 1/16
K: F
F2G2A2B2 | c4c2
c2 | d2e2f2d2 | d2c2c2
c2 | d2e2f2d2 | d2c2c2
c2 | c2B2B2B2 | A4A4 | c4G2G2 | G4F2
C2 | F2G2A2BB | c2c2c2
c2 | d2e2f2d2 | d2c2c2
c2 | d2e2f2d2 | d2c2c2
c2 | c2B2B2B2 | A2A2A2
A2 | c2c2G2G2 | G2G2F2z2 |
F2G2A2B2 | c4f4 | c4z4 |
c2c2B2B2 | A4A2A2 | c4G4 | F4z4

@@@ Tune index: 8619
